src/assets/icons/bin.svg

<svg fill="none" viewBox="0 0 24 24"><path stroke="currentColor" stroke-linecap="round" stroke-width="1.5" d="M6.833 8.123h10.334m-7.565 0a2.373 2.373 0 0 1 4.747 0m-3.956 8.07v-1.978m3.165 1.978v-1.978m2.646-3.323H7.746a.474.474 0 0 0-.472.516l.479 6.289a2 2 0 0 0 1.994 1.848h4.456a2 2 0 0 0 1.994-1.848l.48-6.289a.475.475 0 0 0-.473-.516Z"/></svg>

<svg width="24" height="24" viewBox="0 0 24 24" fill="none" xmlns="http://www.w3.org/2000/svg">
<path d="M6.833 8.123H17.167M9.602 8.123C9.602 6.812 10.665 5.75 11.975 5.75C13.286 5.75 14.349 6.812 14.349 8.123M10.393 16.193V15.402V14.61V14.215M13.558 16.193V15.402V14.61V14.215M16.204 10.892H7.746C7.468 10.892 7.249 11.131 7.274 11.408L7.753 17.697C7.833 18.74 8.702 19.545 9.747 19.545H14.203C15.249 19.545 16.118 18.74 16.197 17.697L16.677 11.408C16.701 11.131 16.483 10.892 16.204 10.892Z" stroke="#314158" stroke-width="1.5" stroke-linecap="round"/>
</svg>
